X:1
T:Bellissima Dori
T:Bellissima Dori
T:Claudio Saracini
T:Source : Le secondo Musische per cantar e sonar---Venetia---A.Vincenti---1620. Editor : André Vierendeels (01/12/15).
T:Aria
T:Notes : Original clefs : C1?F4 Editorial accidentals above the staff
C:Claudio Saracini
%%score 1 2
L:1/8
Q:1/4=85
M:3/4
K:C
V:1 treble nm="Soprano" snm="S"
V:2 bass nm="BC" snm="BC"
V:1
 z4 d2 | d3 c B2 | e2 d2 c2 | d2 c2 d2 | e4 e2 | z2 f2 f2 | e2 d2 g2 | f2 e3 c | d4 d2 | c4 c2 :: %10
w: Bel-|lis- si- ma|Do- ri, l'al-|tie- ro tuo|sguar- do,|Fa si|ch'io tutt' ar-|do di vi-|va- ci'a-|mo- ri.|
w: L'an-|ge- li- co|vi- so se|cru- do si|mo- stra,|e sde-|gno l'i- no-|stra del duol|son ac-|ci- so.|
w: Se|fug- gi spie-|ta- ta, il|cor mi si|par- te,|e te-|co si par-|te que- st'al-|ma'in- fiam-|ma- ta.|
w: Or|vi- bra tuoi|ra- i, vez-|zo- sa, vez-|zo- sa,|Che l'es-|ser ri- tro-|sa m'an- ci-|de con|gua- i.|
 z4 B2 | d3 c B2 | c3 B A2 | B2 ^F2 ^G2 | A6 |"^#" G4 c2 | e2 d2 c2 | B2 f2 e2 | d4 d2 | c4 c2 | %20
w: Ma|dol- ci gl'ar-|do- ri di-|ven- gon fo-|ve-|te, se|gl'oc- chi'a te|gi- ro'e lie-|ta ri-|mi- ro,|
w: Ma|vien poi di-|vi- so dal|duo- lo co-|cen-|te, dal|dol- ce che|stel- l'ar- dor|che sfa-|vil- la,|
w: La|Mor- te'ha- vrei|gra- ta si|re- sto do-|len-|te, ma|poi quan- to|tor- ni'al- lun-|ga miei|gior- ni,|
w: Fug-|gir pur vor-|ra- i, deh|flam- mi pre-|sen-|te, e|mo- stra- mi'og-|n'or'- cor- te-|se mia'au-|ro- ra,|
 z d G2 G2 | G2 A4 | G6 :| %23
w: la boc- ca|ri- den-|te.|
w: |||
w: |||
w: |||
V:2
 z4 G,,2 | G,,3 A,, B,,2 | C,2 D,2 E,2 | G,2 A,2 G,2 | C,4 C,2 | z2 D,2 D,2 | C,2 B,,2 C,2 | %7
 D,2 E,3 A, | G,4 G,2 | C,4 C,2 :: z4 G,2 | G,3 A, G,2 | A,3 G, ^F,2 | G,2 D,2 E,2 | F,6 | %15
 E,4 C,2 | C,2 B,,2 A,,2 | E,2 D,2 C,2 | G,4 G,2 | C,4 C,2 | B,,2 B,,2 A,,2 | G,,2 D,4 | G,,6 :| %23

